src/icons/svg/console.svg

<?xml version="1.0" encoding="UTF-8"?>
<svg width="40px" height="35px" viewBox="0 0 40 35" version="1.1" xmlns="http://www.w3.org/2000/svg"
>
    <path d="M36.875,-7.10542736e-16 L3.125,-7.10542736e-16 C1.39882813,-7.10542736e-16 0,1.39882812 0,3.125 L0,25.4464844 C0,27.1726562 1.39882813,28.5714844 3.125,28.5714844 L36.875,28.5714844 C38.6007812,28.5714844 40,27.1726562 40,25.4464844 L40,3.125 C40,1.39882812 38.6007813,-7.10542736e-16 36.875,-7.10542736e-16 Z M37.0878906,23.5722656 C37.0878906,24.5980469 36.25625,25.4296875 35.2304688,25.4296875 L29.2867188,25.4296875 L29.2867188,14.6570313 C29.2867188,13.63125 28.4554688,12.7996094 27.4292969,12.7996094 C26.4035156,12.7996094 25.571875,13.63125 25.571875,14.6570313 L25.571875,25.4296875 L21.8570313,25.4296875 L21.8570313,10.9421875 C21.8570313,9.91640625 21.0257813,9.08476562 19.9996094,9.08476562 C18.9738281,9.08476562 18.1421875,9.91640625 18.1421875,10.9421875 L18.1421875,25.4296875 L14.4273438,25.4296875 L14.4273438,17.6289062 C14.4273438,16.603125 13.5960938,15.7714844 12.5699219,15.7714844 C11.5441406,15.7714844 10.7125,16.6027344 10.7125,17.6289062 L10.7125,25.4296875 L4.76992188,25.4296875 C3.74414063,25.4296875 2.9125,24.5980469 2.9125,23.5722656 L2.9125,4.99882812 C2.9125,3.97304687 3.74414063,3.14140625 4.76992188,3.14140625 L35.2304688,3.14140625 C36.25625,3.14140625 37.0878906,3.97304687 37.0878906,4.99882813 L37.0878906,23.5722656 L37.0878906,23.5722656 Z M28.2144531,31.4285156 L11.7855469,31.4285156 C10.7992187,31.4285156 10,32.228125 10,33.2140625 C10,34.2003906 10.7996094,34.9996094 11.7855469,34.9996094 L28.2144531,34.9996094 C29.2003906,34.9996094 30,34.2003906 30,33.2140625 C30,32.228125 29.2003906,31.4285156 28.2144531,31.4285156 Z"
          id="形状"></path>
</svg>

<svg width="40" height="35" xmlns="http://www.w3.org/2000/svg"><path d="M36.875 0H3.125A3.125 3.125 0 0 0 0 3.125v22.321a3.125 3.125 0 0 0 3.125 3.125h33.75A3.125 3.125 0 0 0 40 25.446V3.125C40 1.399 38.6 0 36.875 0zm.213 23.572a1.857 1.857 0 0 1-1.858 1.858h-5.943V14.657a1.857 1.857 0 1 0-3.715 0V25.43h-3.715V10.942a1.857 1.857 0 1 0-3.715 0V25.43h-3.715v-7.801a1.857 1.857 0 1 0-3.714 0v7.8H4.77a1.857 1.857 0 0 1-1.857-1.857V5c0-1.026.831-1.858 1.857-1.858h30.46c1.026 0 1.858.832 1.858 1.858v18.573zm-8.874 7.857H11.786a1.786 1.786 0 1 0 0 3.57h16.428a1.786 1.786 0 1 0 0-3.57z"/></svg>
